X:1
T:Title
%%score { ( 1 3 ) | 2 }
L:1/8
Q:1/4=100
M:6/8
K:Eb
V:1 treble nm="Grand Piano"
V:3 treble 
V:2 bass 
V:1
 G>GG GFE | [GB]>[GB][GB] [GB]3 | c>cc B>AG | GFE [DF]3 | G>GG GFE |[M:15/16] c>cd e3 c3/2 | %6
w: D.~O.~Teasley * * * * *||||||
[M:13/16] [EGB][B,EG][G,B,E][A,DF][B,EG]3/2[A,B,F] |[M:3/4] [G,B,E]6 | [GB]4 z2 | [FA]6 | %10
w: ||||
 [FA]4 z2 | [EG]6 | [Ec]4 de | [Ge]4 z2 | [DB]4[K:bass][K:treble] z2 | E6 |] %16
w: ||||||
V:2
 [E,B,E]>[E,B,E][E,B,E] [E,B,E][E,A,E][E,G,] | [E,E]>[E,E][E,E] [E,E]3 | %2
 [A,EA]>[A,EA][A,EA][K:bass] [G,B,E]>[F,B,D][E,B,E] | [E,B,E][D,B,][C,=A,C] [B,,B,]3 | %4
 [E,B,E]>[E,B,E][E,B,E] [E,B,E][E,A,E][E,G,] | %5
[M:15/16][K:treble] [A,E]>[A,E][A,B,E] [A,CA]3 [A,EA]3/2 |[M:13/16][K:bass] E,E,E,B,,B,,3/2B,, | %7
[M:3/4] E,6 | E,E, E,E, E,E, | B,,D, C, .B,,3 | B,,B,, B,,B,, B,,B,, | E,G, F, .E,3 | %12
 A,A, A,A,[K:treble] [A,B,E][A,CA] | [E,B,]E, E,E, [E,G,E][E,E] | [B,,F,]B,, B,,B,, B,,B,, | %15
 [E,G,][E,B,] [E,A,] .[E,G,]3 |] %16
V:3
 x6 | x6 | x6 | x6 | x6 |[M:15/16] x15/2 |[M:13/16] x13/2 |[M:3/4] x6 | EE EE [EAc][B,EG] | %9
 B,B, B, .B,3 | B,B, B,B, [B,GB][B,DF] | B,B, B, .B,3 | x6 | z B, B,B, BG | %14
 z[K:bass] F, F,F,[K:treble] [A,DF][B,DG] | z D C .B,3 |] %16

